src/assets/icons/arrow.svg

<svg width="10" height="6" viewBox="0 0 10 6" fill="none" xmlns="http://www.w3.org/2000/svg">
<path d="M9.84016 0.540416L9.5126 0.210576C9.40951 0.107567 9.27235 0.0508181 9.12577 0.0508181C8.97926 0.0508181 8.84194 0.107567 8.73885 0.210576L5.00224 3.94735L1.26131 0.206429C1.15838 0.10342 1.02107 0.0467529 0.87456 0.0467529C0.728055 0.0467529 0.590655 0.10342 0.487646 0.206429L0.160001 0.534237C-0.0533338 0.747409 -0.0533338 1.09465 0.160001 1.30782L4.61402 5.77786C4.71695 5.88078 4.8541 5.95331 5.00191 5.95331H5.00362C5.1502 5.95331 5.28736 5.8807 5.39029 5.77786L9.84016 1.31993C9.94325 1.21701 9.99984 1.0757 10 0.929199C10 0.782613 9.94325 0.643262 9.84016 0.540416Z" fill="white"/>
</svg>

<svg xmlns="http://www.w3.org/2000/svg" width="10" height="6" fill="none"><path fill="#fff" d="M9.84.54 9.513.21a.543.543 0 0 0-.387-.16.543.543 0 0 0-.387.16L5.002 3.948 1.262.207a.543.543 0 0 0-.387-.16.543.543 0 0 0-.387.16L.16.533a.548.548 0 0 0 0 .774l4.454 4.47a.56.56 0 0 0 .388.175h.002a.559.559 0 0 0 .386-.175L9.84 1.32a.552.552 0 0 0 0-.78Z"/></svg>
